shader_type canvas_item;
render_mode unshaded;

const int MAX_STEPS = 300;
const float MAX_DISTANCE = 1000.0;
const float MIN_DISTANCE = 0.001;

vec4 raymarch(vec3 ray_origin, vec3 ray_dir, float depth) {
    
}

void fragment() {
      
}